X:1
T:Title
%%score { ( 1 4 ) | ( 2 3 ) }
L:1/8
Q:1/4=92
M:6/8
K:Bb
V:1 treble nm="Grand Piano"
V:4 treble 
V:2 bass 
V:3 bass 
V:1
 [Dd]2 [DA] [Ec][EB][A,EG] | [B,DF]2 [_DG] [F,=DF]2 [DB] | c2 c cBc | [Fd]3- [Fd]2 [Fd] | %4
w: August~Krapf * * * *||||
 [=Ec]2 [EB] [FA]2 [Fd] | [=Ec]2 [EB] [FA]2 [FA] | .[B,DG]2 [DB] [=EA]2 [EG] | F6 | e2 =B dcA | %9
w: |||||
 G3 F2 [DF] | .d3 z3 | [DF]3- [DF]2 [Fd] | [Dc]2 [DB] [Ee]2 [Fd] |[M:7/8] [Dc]2 [DB] B3 G | %14
w: |||||
[M:3/4] F2 BA Bc | [DB]6 | F2 z F z2 | [A,EF]3 [EFc]3 | .F2 z .G3 | [DFd]6[K:bass][K:treble] | %20
w: ||||||
 [Ge]2 [Gd] [Gc]2 [Ge] | [^Fd]2 [FA] B2 d | f2 d[Ge] [Fd][Ec] | [DB]6 |] %24
w: ||||
V:2
 [B,,F,]2 [B,,^F,] [B,,G,][B,,G,]B,, | z2 =E, B,,2 [B,,F,] | %2
 [F,A,F]2 [F,A,F] [F,F]-[F,G,F][F,A,F] | [B,,B,]3- [B,,B,]2 [B,,B,] | %4
 [C,G,]2 [C,C] [F,C]2 [B,,B,] | [C,G,]2 [_D,G,] [=D,F,]2 [D,F,] | %6
 z[K:treble] c[K:bass][B,,G,] [C,C]2 [C,B,] | [F,A,]6 | [F,A,F]2 [F,_A,F] [F,=A,E][F,A,E][F,CE] | %9
 [F,B,E]3 [F,A,E]2 [B,,B,] | [B,,F,]2 [B,,^F,] z[K:treble] B[K:bass]B,, | %11
 [B,,B,]3- [B,,B,]2 [B,,B,] | [B,,_A,]2 [B,,A,] [E,G,]2 [B,,B,] | %13
[M:7/8] [B,,_A,]2 [B,,A,] [E,G,E]3 [=E,B,_D] |[M:3/4] z2 z C z2 | [B,,F,]6 | B,,2 .F,,2 GF,, | %17
 F,2 C, F,,3 | z F F,, A,,2 F,, | F,4- F,[G,=B,G] | [C,C]2 [D,B,] [E,C]2 [C,C] | %21
 [D,A,]2 [D,D][K:treble] [G,DG]2 [G,B,=E] | [F,DF]2 [F,B,F] [F,A,]2 [F,A,] | [B,,F,]6 |] %24
V:3
 x6 | B,,3 z3 | z3 .A,3 | x6 | x6 | x6 | .B,,3[K:treble][K:bass] z3 | x6 | x6 | x6 | %10
 z3 .[B,,G,]3[K:treble][K:bass] | x6 | x6 |[M:7/8] x7 | %14
[M:3/4] [F,B,D]2 [F,B,D][F,E]- [F,B,E][F,A,E] | x6 | z2 z .=B,,3 | x6 | C,2 z2 z2 | B,,2 z2 z2 | %20
 x6 | x3[K:treble] x3 | x6 | x6 |] %24
V:4
 x6 | x6 | x6 | x6 | x6 | x6 | x6 | x6 | x6 | x6 | D-[DA][DB] .[Ec]2 [A,EG] | x6 | x6 |[M:7/8] x7 | %14
[M:3/4] x6 | x6 | [F,B,D]2- [F,B,DF] [F,_A,D]2- [F,A,DF] | x6 | %18
 [F,A,E]2- [F,A,EF] [F,CE]2- [F,CEF] | z2[K:bass] F,, B,,2[K:treble] d | x6 | x6 | x6 | x6 |] %24

